public/img/streams-feature-1.svg

<svg width="148" height="148" viewBox="0 0 148 148" fill="none" xmlns="http://www.w3.org/2000/svg">
<g clip-path="url(#clip0)">
<path d="M21.082 106.465C19.8847 106.465 18.9141 107.436 18.9141 108.633V110.092C18.9141 111.289 19.8847 112.26 21.082 112.26C22.2793 112.26 23.25 111.289 23.25 110.092V108.633C23.25 107.436 22.2793 106.465 21.082 106.465Z" fill="#F25817"/>
<path d="M21.082 128.021C19.8847 128.021 18.9141 128.992 18.9141 130.189V131.649C18.9141 132.846 19.8847 133.817 21.082 133.817C22.2793 133.817 23.25 132.846 23.25 131.649V130.189C23.25 128.992 22.2793 128.021 21.082 128.021Z" fill="#F25817"/>
<path d="M28.1952 115.203C28.7497 115.203 29.3041 114.992 29.7273 114.569L30.7601 113.538C31.6073 112.691 31.6079 111.319 30.7618 110.472C29.9155 109.625 28.5427 109.624 27.696 110.47L26.6632 111.502C25.816 112.348 25.8154 113.721 26.6615 114.567C27.0847 114.992 27.64 115.203 28.1952 115.203Z" fill="#F25817"/>
<path d="M12.4343 125.71L11.4015 126.742C10.5542 127.588 10.5537 128.961 11.3998 129.808C11.8232 130.232 12.3782 130.444 12.9335 130.444C13.4879 130.444 14.0424 130.233 14.4656 129.81L15.4984 128.778C16.3456 127.932 16.3462 126.559 15.5001 125.712C14.654 124.865 13.2813 124.864 12.4343 125.71Z" fill="#F25817"/>
<path d="M32.6035 117.971H31.1426C29.9453 117.971 28.9746 118.941 28.9746 120.139C28.9746 121.336 29.9453 122.307 31.1426 122.307H32.6035C33.8008 122.307 34.7715 121.336 34.7715 120.139C34.7715 118.941 33.8008 117.971 32.6035 117.971Z" fill="#F25817"/>
<path d="M13.1894 120.139C13.1894 118.941 12.2188 117.971 11.0215 117.971H9.56054C8.36325 117.971 7.39258 118.941 7.39258 120.139C7.39258 121.336 8.36325 122.307 9.56054 122.307H11.0215C12.2191 122.307 13.1894 121.336 13.1894 120.139Z" fill="#F25817"/>
<path d="M29.7273 125.71C28.88 124.864 27.5073 124.865 26.6615 125.712C25.8154 126.559 25.816 127.932 26.6632 128.778L27.696 129.81C28.1192 130.232 28.6736 130.444 29.2281 130.444C29.7831 130.444 30.3386 130.232 30.7618 129.808C31.6079 128.961 31.6073 127.588 30.7601 126.742L29.7273 125.71Z" fill="#F25817"/>
<path d="M14.4656 110.47C13.6183 109.624 12.2456 109.625 11.3998 110.472C10.5537 111.319 10.5542 112.692 11.4015 113.538L12.4343 114.569C12.8575 114.992 13.4119 115.203 13.9663 115.203C14.5213 115.203 15.0769 114.992 15.5001 114.568C16.3462 113.72 16.3456 112.348 15.4984 111.502L14.4656 110.47Z" fill="#F25817"/>
<path d="M121.477 1.0625C120.279 1.0625 119.309 2.03317 119.309 3.23047V4.68937C119.309 5.88666 120.279 6.85734 121.477 6.85734C122.674 6.85734 123.645 5.88666 123.645 4.68937V3.23047C123.645 2.03317 122.674 1.0625 121.477 1.0625Z" fill="#F25817"/>
<path d="M121.477 22.6172C120.279 22.6172 119.309 23.5879 119.309 24.7852V26.2443C119.309 27.4416 120.279 28.4123 121.477 28.4123C122.674 28.4123 123.645 27.4416 123.645 26.2443V24.7852C123.645 23.5879 122.674 22.6172 121.477 22.6172Z" fill="#F25817"/>
<path d="M128.59 9.80102C129.144 9.80102 129.699 9.58971 130.122 9.16681L131.155 8.13515C132.002 7.28906 132.002 5.9163 131.156 5.06935C130.31 4.2224 128.937 4.22153 128.091 5.06762L127.058 6.09928C126.21 6.94537 126.21 8.31813 127.056 9.16508C127.479 9.58913 128.034 9.80102 128.59 9.80102Z" fill="#F25817"/>
<path d="M112.831 20.3099L111.798 21.3415C110.951 22.1876 110.95 23.5604 111.796 24.4073C112.22 24.8314 112.775 25.0433 113.33 25.0433C113.885 25.0433 114.439 24.832 114.862 24.4094L115.895 23.3777C116.742 22.5316 116.743 21.1589 115.897 20.3119C115.051 19.4644 113.678 19.4638 112.831 20.3099Z" fill="#F25817"/>
<path d="M132.998 12.5684H131.537C130.34 12.5684 129.369 13.539 129.369 14.7363C129.369 15.9336 130.34 16.9043 131.537 16.9043H132.998C134.195 16.9043 135.166 15.9336 135.166 14.7363C135.166 13.539 134.195 12.5684 132.998 12.5684Z" fill="#F25817"/>
<path d="M113.584 14.7363C113.584 13.539 112.613 12.5684 111.416 12.5684H109.955C108.758 12.5684 107.787 13.539 107.787 14.7363C107.787 15.9336 108.758 16.9043 109.955 16.9043H111.416C112.614 16.9043 113.584 15.9336 113.584 14.7363Z" fill="#F25817"/>
<path d="M130.124 20.3078C129.277 19.4617 127.904 19.4626 127.058 20.3098C126.212 21.1571 126.213 22.5296 127.06 23.3756L128.093 24.4073C128.516 24.8299 129.07 25.0412 129.625 25.0412C130.18 25.0412 130.735 24.8293 131.159 24.4053C132.005 23.558 132.004 22.1856 131.157 21.3395L130.124 20.3078Z" fill="#F25817"/>
<path d="M112.831 9.16497C113.254 9.58787 113.808 9.79917 114.363 9.79917C114.918 9.79917 115.473 9.58729 115.897 9.16323C116.743 8.31599 116.742 6.94352 115.895 6.09744L114.862 5.06577C114.015 4.21969 112.642 4.22026 111.796 5.06751C110.95 5.91475 110.951 7.28722 111.798 8.1333L112.831 9.16497Z" fill="#F25817"/>
<path d="M75.578 0.935443L80.3325 9.62871C80.4976 9.93049 80.7456 10.1785 81.0473 10.3436L89.7406 15.0981C90.9879 15.7803 90.9879 17.5716 89.7406 18.2538L81.0476 23.0086C80.7459 23.1736 80.4978 23.4216 80.3328 23.7234L75.5783 32.4167C74.8961 33.664 73.1048 33.664 72.4226 32.4167L67.6678 23.7234C67.5028 23.4216 67.2547 23.1736 66.953 23.0086L58.2597 18.254C57.0124 17.5719 57.0124 15.7805 58.2597 15.0984L66.953 10.3439C67.2547 10.1788 67.5028 9.93078 67.6678 9.629L72.4223 0.935732C73.1048 -0.311862 74.8958 -0.311862 75.578 0.935443Z" fill="#FCA309"/>
<path d="M89.741 15.0984L81.0477 10.3439C80.7459 10.1788 80.4979 9.93081 80.3328 9.62903L75.578 0.935479C74.8958 -0.311826 73.1045 -0.311826 72.4223 0.935479L70.2812 4.85025L71.7428 7.52263C72.6599 9.19978 74.0388 10.5786 75.7159 11.4958C79.8111 13.7355 79.8111 19.617 75.7159 21.8567C74.0388 22.7739 72.6599 24.1527 71.7428 25.8298L70.2812 28.5022L72.4223 32.417C73.1045 33.6643 74.8958 33.6643 75.578 32.417L80.3325 23.7237C80.4976 23.4219 80.7456 23.1739 81.0474 23.0089L89.7407 18.2544C90.9883 17.5719 90.9883 15.7806 89.741 15.0984Z" fill="#FD8E09"/>
<path d="M18.2538 26.2636L23.0083 34.9568C23.1734 35.2586 23.4214 35.5066 23.7231 35.6717L32.4164 40.4262C33.6637 41.1084 33.6637 42.8997 32.4164 43.5819L23.7234 48.3367C23.4217 48.5017 23.1736 48.7497 23.0086 49.0515L18.2541 57.7448C17.5719 58.9921 15.7806 58.9921 15.0984 57.7448L10.3439 49.0515C10.1788 48.7497 9.93082 48.5017 9.62904 48.3367L0.935479 43.5822C-0.311826 42.9 -0.311826 41.1087 0.935479 40.4265L9.62875 35.672C9.93053 35.5069 10.1785 35.2589 10.3436 34.9571L15.0981 26.2639C15.7806 25.0163 17.5719 25.0163 18.2538 26.2636Z" fill="#FCA309"/>
<path d="M32.4164 40.4265L23.7232 35.672C23.4214 35.5069 23.1734 35.2589 23.0083 34.9571L18.2535 26.2636C17.5713 25.0163 15.78 25.0163 15.0981 26.2636L12.957 30.1784L14.4185 32.8508C15.3357 34.5279 16.7146 35.9067 18.3917 36.8239C22.4868 39.0636 22.4868 44.9451 18.3917 47.1848C16.7146 48.102 15.3357 49.4808 14.4185 51.1579L12.957 53.8303L15.0981 57.7451C15.7803 58.9924 17.5716 58.9924 18.2535 57.7451L23.008 49.0518C23.1731 48.75 23.4211 48.502 23.7229 48.337L32.4161 43.5825C33.6637 42.9 33.6637 41.1087 32.4164 40.4265Z" fill="#FD8E09"/>
<path d="M132.902 38.2968L137.657 46.9901C137.822 47.2919 138.07 47.5399 138.372 47.7049L147.065 52.4594C148.312 53.1416 148.312 54.9329 147.065 55.6151L138.372 60.3696C138.07 60.5347 137.822 60.7827 137.657 61.0845L132.902 69.7777C132.22 71.025 130.429 71.025 129.747 69.7777L124.992 61.0845C124.827 60.7827 124.579 60.5347 124.277 60.3696L115.584 55.6151C114.337 54.9329 114.337 53.1416 115.584 52.4594L124.277 47.7049C124.579 47.5399 124.827 47.2919 124.992 46.9901L129.747 38.2968C130.429 37.0495 132.22 37.0495 132.902 38.2968Z" fill="#FCA309"/>
<path d="M147.065 52.4594L138.371 47.7049C138.07 47.5399 137.822 47.2919 137.656 46.9901L132.902 38.2968C132.22 37.0495 130.428 37.0495 129.747 38.2968L127.605 42.2116L129.067 44.884C129.984 46.5611 131.363 47.9399 133.04 48.8571C137.135 51.0968 137.135 56.9783 133.04 59.218C131.363 60.1352 129.984 61.514 129.067 63.1911L127.605 65.8635L129.747 69.7783C130.429 71.0256 132.22 71.0256 132.902 69.7783L137.656 61.085C137.822 60.7833 138.07 60.5352 138.371 60.3702L147.065 55.6157C148.312 54.9326 148.312 53.1413 147.065 52.4594Z" fill="#FD8E09"/>
<path d="M87.1527 147.763C87.4877 140.669 90.0242 113.162 109.11 74.5172C110.669 71.3603 114.743 70.4481 117.489 72.6527C119.703 74.431 120.201 77.6052 118.632 79.9718C112.37 89.412 97.188 114.404 87.5923 147.833C87.5186 148.09 87.1399 148.03 87.1527 147.763Z" fill="#F13555"/>
<path d="M63.3179 147.757C62.4007 135.673 57.6867 88.2486 38.6959 59.316C36.967 56.6821 33.3716 56.0603 30.8704 57.9765C28.546 59.7574 28.0558 63.0654 29.7734 65.4372C36.4163 74.6106 51.845 99.7726 62.8757 147.821C62.9381 148.091 63.339 148.034 63.3179 147.757Z" fill="#F13555"/>
<path d="M73.5562 147.786L68.541 53.0264C68.3754 49.8985 70.8671 47.2715 73.9994 47.2715C77.1415 47.2715 79.637 49.9144 79.4563 53.0516L74.004 147.787C73.9878 148.069 73.5713 148.068 73.5562 147.786Z" fill="#F13555"/>
</g>
<defs>
<clipPath id="clip0">
<rect width="148" height="148" fill="white"/>
</clipPath>
</defs>
</svg>

<svg width="148" height="148" fill="none" xmlns="http://www.w3.org/2000/svg"><g clip-path="url(#clip0)"><path d="M21.082 106.465a2.168 2.168 0 00-2.168 2.168v1.459a2.168 2.168 0 004.336 0v-1.459c0-1.197-.97-2.168-2.168-2.168zm0 21.556a2.168 2.168 0 00-2.168 2.168v1.46a2.168 2.168 0 004.336 0v-1.46c0-1.197-.97-2.168-2.168-2.168zm7.113-12.818a2.16 2.16 0 001.532-.634l1.033-1.031a2.168 2.168 0 00-3.064-3.068l-1.033 1.032a2.167 2.167 0 001.532 3.701zM12.434 125.71l-1.032 1.032a2.168 2.168 0 003.064 3.068l1.032-1.032a2.168 2.168 0 00-3.064-3.068zm20.169-7.739h-1.46a2.168 2.168 0 100 4.336h1.46a2.168 2.168 0 000-4.336zm-19.413 2.168a2.168 2.168 0 00-2.168-2.168H9.56a2.168 2.168 0 100 4.336h1.46a2.168 2.168 0 002.168-2.168zm16.537 5.571a2.168 2.168 0 00-3.064 3.068l1.033 1.032a2.164 2.164 0 003.066-.002 2.168 2.168 0 00-.002-3.066l-1.033-1.032zm-15.261-15.24a2.168 2.168 0 00-3.064 3.068l1.032 1.031a2.16 2.16 0 001.532.634 2.168 2.168 0 001.532-3.701l-1.032-1.032zM121.477 1.063c-1.198 0-2.168.97-2.168 2.167v1.46a2.168 2.168 0 104.336 0V3.23a2.168 2.168 0 00-2.168-2.167zm0 21.554c-1.198 0-2.168.97-2.168 2.168v1.46a2.168 2.168 0 104.336 0v-1.46a2.168 2.168 0 00-2.168-2.168zm7.113-12.816a2.16 2.16 0 001.532-.634l1.033-1.032a2.168 2.168 0 00-3.064-3.067l-1.033 1.031a2.167 2.167 0 001.532 3.702zM112.831 20.31l-1.033 1.032a2.168 2.168 0 003.064 3.067l1.033-1.031a2.168 2.168 0 00-3.064-3.068zm20.167-7.742h-1.461a2.168 2.168 0 000 4.336h1.461a2.168 2.168 0 000-4.336zm-19.414 2.168a2.168 2.168 0 00-2.168-2.168h-1.461a2.168 2.168 0 000 4.336h1.461c1.198 0 2.168-.97 2.168-2.168zm16.54 5.572a2.168 2.168 0 00-3.064 3.068l1.033 1.031a2.16 2.16 0 001.532.634 2.168 2.168 0 001.532-3.702l-1.033-1.031zM112.831 9.165a2.16 2.16 0 001.532.634 2.168 2.168 0 001.532-3.702l-1.033-1.031a2.168 2.168 0 10-3.064 3.067l1.033 1.032z" fill="#F25817"/><path d="M75.578.935l4.754 8.694a1.8 1.8 0 00.715.715l8.694 4.754c1.247.682 1.247 2.474 0 3.156l-8.693 4.755a1.8 1.8 0 00-.715.714l-4.755 8.694c-.682 1.247-2.473 1.247-3.155 0l-4.755-8.694a1.798 1.798 0 00-.715-.714l-8.693-4.755c-1.248-.682-1.248-2.474 0-3.156l8.693-4.754c.302-.165.55-.413.715-.715L72.422.936c.683-1.248 2.474-1.248 3.156 0z" fill="#FCA309"/><path d="M89.741 15.098l-8.693-4.754a1.799 1.799 0 01-.715-.715L75.578.935c-.682-1.247-2.474-1.247-3.156 0l-2.14 3.915 1.46 2.673a9.993 9.993 0 003.974 3.973c4.095 2.24 4.095 8.121 0 10.36a9.993 9.993 0 00-3.973 3.974l-1.462 2.672 2.141 3.915c.683 1.247 2.474 1.247 3.156 0l4.754-8.693c.166-.302.414-.55.715-.715l8.694-4.755c1.247-.682 1.247-2.473 0-3.156z" fill="#FD8E09"/><path d="M18.254 26.264l4.754 8.693a1.8 1.8 0 00.715.715l8.693 4.754c1.248.682 1.248 2.474 0 3.156l-8.693 4.755c-.301.165-.55.413-.714.714l-4.755 8.694c-.682 1.247-2.473 1.247-3.156 0l-4.754-8.694a1.798 1.798 0 00-.715-.714L.935 43.582c-1.247-.682-1.247-2.473 0-3.156l8.694-4.754c.302-.165.55-.413.715-.715l4.754-8.693c.683-1.248 2.474-1.248 3.156 0z" fill="#FCA309"/><path d="M32.416 40.426l-8.693-4.754a1.799 1.799 0 01-.715-.715l-4.755-8.693c-.682-1.248-2.473-1.248-3.155 0l-2.141 3.914 1.461 2.673a9.994 9.994 0 003.974 3.973c4.095 2.24 4.095 8.121 0 10.36a9.994 9.994 0 00-3.973 3.974l-1.462 2.672 2.141 3.915c.682 1.247 2.474 1.247 3.155 0l4.755-8.693c.165-.302.413-.55.715-.715l8.693-4.755c1.248-.682 1.248-2.473 0-3.156z" fill="#FD8E09"/><path d="M132.902 38.297l4.755 8.693c.165.302.413.55.715.715l8.693 4.754c1.247.683 1.247 2.474 0 3.156l-8.693 4.755c-.302.165-.55.413-.715.715l-4.755 8.693c-.682 1.247-2.473 1.247-3.155 0l-4.755-8.694a1.797 1.797 0 00-.715-.714l-8.693-4.755c-1.247-.682-1.247-2.473 0-3.156l8.693-4.754c.302-.165.55-.413.715-.715l4.755-8.693c.682-1.247 2.473-1.247 3.155 0z" fill="#FCA309"/><path d="M147.065 52.46l-8.694-4.755a1.809 1.809 0 01-.715-.715l-4.754-8.693c-.682-1.247-2.474-1.247-3.155 0l-2.142 3.915 1.462 2.672a9.993 9.993 0 003.973 3.973c4.095 2.24 4.095 8.121 0 10.361a9.993 9.993 0 00-3.973 3.973l-1.462 2.672 2.142 3.915c.682 1.248 2.473 1.248 3.155 0l4.754-8.693a1.81 1.81 0 01.715-.715l8.694-4.754c1.247-.683 1.247-2.475 0-3.157z" fill="#FD8E09"/><path d="M87.153 147.763c.335-7.094 2.871-34.601 21.957-73.246 1.559-3.157 5.633-4.069 8.379-1.864a5.496 5.496 0 011.143 7.319c-6.262 9.44-21.444 34.432-31.04 67.861-.073.257-.452.197-.44-.07zm-23.835-.006c-.917-12.084-5.631-59.508-24.622-88.441-1.729-2.634-5.324-3.256-7.826-1.34a5.406 5.406 0 00-1.097 7.461c6.643 9.174 22.072 34.336 33.103 82.384.062.27.463.213.442-.064zm10.238.029l-5.015-94.76a5.466 5.466 0 1110.915.026l-5.452 94.735c-.016.282-.433.281-.448-.001z" fill="#F13555"/></g><defs><clipPath id="clip0"><path fill="#fff" d="M0 0h148v148H0z"/></clipPath></defs></svg>
